coreui/free/cil-low-vision.svg

<svg xmlns="http://www.w3.org/2000/svg" viewBox="0 0 512 512">
  <path fill="var(--ci-primary-color, currentColor)" d="M397.222,139.1l-.218-.223c-61.693-61.692-154.082-74.423-228.455-38.211l24.213,24.213c60.468-24.573,132.5-12.4,181.509,36.52L464,254.683v3.107L396.179,328.3l22.63,22.63L496,270.683V241.79Z" class="ci-primary"/>
  <path fill="var(--ci-primary-color, currentColor)" d="M358.99,290.323A103.984,103.984,0,0,0,221.677,153.01l25.09,25.09A71.974,71.974,0,0,1,333.9,265.233Z" class="ci-primary"/>
  <path fill="var(--ci-primary-color, currentColor)" d="M16,16V37.94l99.977,99.978c-.326.321-.656.636-.981.96L16,241.79v28.893l98.778,102.689.218.222a199.715,199.715,0,0,0,257.5,20.84L474.06,496H496V472.687L39.313,16ZM81.982,219.355l17.036-17.71L293.14,395.767a168.457,168.457,0,0,1-30.727,4.018ZM48,257.79v-3.107l11.794-12.261L211.233,393.861a166.38,166.38,0,0,1-73.5-42.788ZM326.879,384.252,121.206,178.578,137.729,161.4c.29-.289.586-.567.877-.854l210.9,210.9A166.053,166.053,0,0,1,326.879,384.252Z" class="ci-primary"/>
</svg>

<svg viewBox="0 0 512 512" xmlns="http://www.w3.org/2000/svg"><g><path d="M397.222 139.1l-.22-.23c-61.7-61.7-154.09-74.43-228.46-38.22l24.21 24.21c60.46-24.58 132.5-12.4 181.509 36.52l89.72 93.28v3.1l-67.83 70.51 22.63 22.63 77.19-80.25v-28.9Z"/><path d="M358.99 290.323v0c23.38-52.46-.19-113.93-52.64-137.313 -26.95-12.02-57.73-12.02-84.68 0l25.09 25.09v0c38.59-9.54 77.6 14.02 87.13 52.61 2.79 11.33 2.79 23.18 0 34.51Z"/><path d="M16 16v21.94l99.977 99.97c-.33.32-.66.63-.99.96l-99 102.91v28.893l98.77 102.68 .21.22h0c69.17 69 178.12 77.81 257.5 20.84l101.56 101.56h21.94v-23.32L39.28 15.96Zm65.982 203.35l17.036-17.71 194.12 194.12v-.001c-10.1 2.28-20.39 3.62-30.73 4.01ZM48 257.78v-3.11l11.79-12.27 151.43 151.43h0c-27.8-7.66-53.13-22.4-73.5-42.79Zm278.879 126.46L121.2 178.56l16.52-17.18c.29-.29.58-.57.87-.86l210.9 210.9v0c-7.2 4.85-14.77 9.13-22.63 12.8Z"/></g></svg>
